packages/ffe-icons/icons/filled/lg/medical_services.svg

<svg xmlns="http://www.w3.org/2000/svg" height="40" viewBox="0 -960 960 960" width="40"><path d="M162.565-100.001q-25.788 0-44.176-18.388t-18.388-44.176v-474.87q0-25.788 18.388-44.176t44.176-18.388h177.436v-77.435q0-25.788 18.388-44.175 18.388-18.388 44.176-18.388h154.87q25.788 0 44.176 18.388 18.388 18.387 18.388 44.175v77.435h177.436q25.788 0 44.176 18.388t18.388 44.176v474.87q0 25.788-18.388 44.176t-44.176 18.388h-634.87Zm227.691-599.998h179.488v-77.435q0-4.615-3.847-8.462-3.846-3.846-8.462-3.846h-154.87q-4.616 0-8.462 3.846-3.847 3.847-3.847 8.462v77.435Zm64.617 325.126V-280q0 10.679 7.262 17.903 7.263 7.224 18 7.224 10.736 0 17.864-7.224T505.127-280v-94.873H600q10.679 0 17.903-7.262 7.224-7.263 7.224-18 0-10.736-7.224-17.864T600-425.127h-94.873V-520q0-10.679-7.262-17.903-7.263-7.224-18-7.224-10.736 0-17.864 7.224T454.873-520v94.873H360q-10.679 0-17.903 7.262-7.224 7.263-7.224 18 0 10.736 7.224 17.864T360-374.873h94.873Z"/></svg>

<svg xmlns="http://www.w3.org/2000/svg" viewBox="0 -960 960 960" width="32" height="32"><path d="M162.57-100q-25.79 0-44.18-18.39T100-162.57v-474.86q0-25.79 18.39-44.18T162.57-700H340v-77.43q0-25.79 18.39-44.18T402.57-840h154.86q25.79 0 44.18 18.39T620-777.43V-700h177.43q25.79 0 44.18 18.39T860-637.43v474.86q0 25.79-18.39 44.18T797.43-100H162.57Zm227.69-600h179.48v-77.43q0-4.62-3.84-8.47-3.85-3.84-8.47-3.84H402.57q-4.62 0-8.47 3.84-3.84 3.85-3.84 8.47V-700Zm64.61 325.13V-280q0 10.68 7.27 17.9 7.26 7.23 17.99 7.23 10.74 0 17.87-7.23 7.13-7.22 7.13-17.9v-94.87H600q10.68 0 17.9-7.27 7.23-7.26 7.23-17.99 0-10.74-7.23-17.87-7.22-7.13-17.9-7.13h-94.87V-520q0-10.68-7.27-17.9-7.26-7.23-17.99-7.23-10.74 0-17.87 7.23-7.13 7.22-7.13 17.9v94.87H360q-10.68 0-17.9 7.27-7.23 7.26-7.23 17.99 0 10.74 7.23 17.87 7.22 7.13 17.9 7.13h94.87Z"/></svg>
